X:7
T:Gravel Walk, The
T:Gravel Walks, The
R:reel
D:Paddy Glackin: Ceol ar an bhFidil le Paddy Glackin.
D:Matt Molloy: Stony Steps.
Z:The last part is sometimes singled. See also Jenny's Chickens, #75
Z: edited for Judy's Band by CMcGrew
Z:id:hn-reel-60
M:C|
K:Ador
"Am"A2eA BAeA| A2eA "G"BAGB| "Am"A2eA (3Bcd ef| "G"gedc "Em"BAGB:|
"Am"A2aA gAfA| A2eA "G"BAGB| "Am"A2aA gAfa| "G"gedc "Em"BAGB|
"Am"A2aA gAfA| A2eA "G"BAGB| "Am"ABcd efga| "G"gedc "Em"BAGB||
|:"Am"cAAG ~A3B|cA~A2 "G"dBGB|"Am"cAAG A2ef| "G"gedc "Em"BAGB:|
"C"c2gc acgc|c2ec "G"BAGB|"C"c2gc acga|"G"gedc "Em"BAGB|
"C"c2gc acgc|c2dc "G"BAGB| "Am"ABcd efga|"G"gedc "Em"BAGB||
